svg/fluentui-system-icons/ic_fluent_mail_inbox_arrow_up_24_regular.svg

<svg width="24" height="24" viewBox="0 0 24 24" fill="none" xmlns="http://www.w3.org/2000/svg">
<path d="M10.4986 3.99907C10.3006 4.47354 10.1573 4.9765 10.0764 5.50009L6.25 5.5C5.33183 5.5 4.57881 6.20711 4.5058 7.10647L4.5 7.25V14H9C9.3797 14 9.69349 14.2822 9.74315 14.6482L9.75 14.75C9.75 15.9926 10.7574 17 12 17C13.2426 17 14.25 15.9926 14.25 14.75C14.25 14.3703 14.5322 14.0565 14.8982 14.0068L15 14H19.5L19.5011 12.2672C20.052 11.98 20.5566 11.616 21.0008 11.1896L21 18.75C21 20.483 19.6435 21.8992 17.9344 21.9949L17.75 22H6.25C4.51697 22 3.10075 20.6435 3.00514 18.9344L3 18.75V7.25C3 5.51697 4.35645 4.10075 6.06558 4.00514L6.25 4L10.4986 3.99907ZM8.32501 15.5H4.5V18.75C4.5 19.6682 5.20711 20.4212 6.10647 20.4942L6.25 20.5H17.75C18.6682 20.5 19.4212 19.7929 19.4942 18.8935L19.5 18.75V15.5H15.675C15.3404 17.1483 13.9247 18.404 12.2003 18.4947L12 18.5C10.253 18.5 8.78498 17.3053 8.36837 15.6884L8.32501 15.5ZM16.5 1C19.5376 1 22 3.46243 22 6.5C22 9.53757 19.5376 12 16.5 12C13.4624 12 11 9.53757 11 6.5C11 3.46243 13.4624 1 16.5 1ZM16.6281 3.01661L16.5424 3.00178L16.488 3L16.432 3.005L16.3719 3.01661L16.2886 3.04674L16.2153 3.08884L16.1589 3.13444L13.6464 5.64645L13.5886 5.71569C13.4705 5.8862 13.4705 6.1138 13.5886 6.28431L13.6464 6.35355L13.7157 6.41141C13.8862 6.52953 14.1138 6.52953 14.2843 6.41141L14.3536 6.35355L15.999 4.708L16 10L16.0081 10.0899C16.0451 10.294 16.206 10.4549 16.4101 10.4919L16.5 10.5L16.5899 10.4919C16.794 10.4549 16.9549 10.294 16.9919 10.0899L17 10L16.999 4.706L18.6464 6.35355L18.7157 6.41141C18.9106 6.5464 19.18 6.52712 19.3536 6.35355C19.5271 6.17999 19.5464 5.91056 19.4114 5.71569L19.3536 5.64645L16.806 3.104L16.7585 3.07189L16.691 3.03779L16.6281 3.01661Z" fill="#212121"/>
</svg>

<svg xmlns="http://www.w3.org/2000/svg" width="24" height="24"><path d="M10.499 4a6.454 6.454 0 0 0-.423 1.5H6.25a1.75 1.75 0 0 0-1.744 1.606L4.5 7.25V14H9a.75.75 0 0 1 .743.648l.007.102a2.25 2.25 0 0 0 4.5 0 .75.75 0 0 1 .648-.743L15 14h4.5l.001-1.733a6.517 6.517 0 0 0 1.5-1.077L21 18.75a3.25 3.25 0 0 1-3.066 3.245L17.75 22H6.25a3.25 3.25 0 0 1-3.245-3.066L3 18.75V7.25a3.25 3.25 0 0 1 3.066-3.245L6.25 4h4.249ZM8.325 15.5H4.5v3.25a1.75 1.75 0 0 0 1.606 1.744l.144.006h11.5a1.75 1.75 0 0 0 1.744-1.607l.006-.143V15.5h-3.825a3.752 3.752 0 0 1-3.475 2.995l-.2.005a3.752 3.752 0 0 1-3.632-2.812l-.043-.188ZM16.5 1a5.5 5.5 0 1 1 0 11 5.5 5.5 0 0 1 0-11Zm.128 2.017-.086-.015L16.488 3l-.056.005-.06.012-.083.03-.074.042-.056.045-2.513 2.512-.057.07a.5.5 0 0 0 0 .568l.057.07.07.057a.5.5 0 0 0 .568 0l.07-.057 1.645-1.646L16 10l.008.09a.5.5 0 0 0 .402.402l.09.008.09-.008a.5.5 0 0 0 .402-.402L17 10l-.001-5.294 1.647 1.648.07.057a.5.5 0 0 0 .695-.695l-.057-.07-2.548-2.542-.047-.032-.068-.034-.063-.021Z"/></svg>
